packages/vitzik-app/public/img/svg/instruments/instrument_French Horn.svg

<?xml version="1.0" encoding="utf-8"?>
<!-- Generator: Adobe Illustrator 25.0.0, SVG Export Plug-In . SVG Version: 6.00 Build 0)  -->
<svg version="1.1" xmlns="http://www.w3.org/2000/svg" xmlns:xlink="http://www.w3.org/1999/xlink" x="0px" y="0px"
	 viewBox="0 0 48 48" style="enable-background:new 0 0 48 48;" xml:space="preserve">
<style type="text/css">
	.st0{fill:#F5DAA7;}
	.st1{fill:#EDC472;}
	.st2{fill:#BC9B5B;}
	.st3{fill:#9A6A53;}
	.st4{fill:#855B47;}
	.st5{fill:#F4E2C1;}
	.st6{fill:#F7F7F7;}
	.st7{fill:#C8C3CA;}
	.st8{fill:#B78C7A;}
	.st9{fill:#7A5341;}
	.st10{fill:#704C3B;}
	.st11{fill:#CF9875;}
	.st12{fill:#C7865B;}
	.st13{clip-path:url(#SVGID_3_);}
	.st14{clip-path:url(#SVGID_4_);fill:#FFFFFF;stroke:#231F20;stroke-miterlimit:10;}
	.st15{fill:#FFFFFF;stroke:#231F20;stroke-miterlimit:10;}
	.st16{fill:none;stroke:#000000;stroke-width:4.5;stroke-miterlimit:10;}
	.st17{fill:#463C4B;}
	.st18{fill:#555A6E;}
	.st19{fill:#F06423;}
	.st20{fill:#FAA51E;}
	.st21{fill:#D7E6F0;}
	.st22{fill:#DADADA;}
	.st23{fill:#C4C6C6;}
	.st24{fill:#EDEEEF;}
	.st25{fill:#797981;}
	.st26{fill:#5A5A63;}
	.st27{fill:#494951;}
	.st28{fill:#29BAED;}
	.st29{fill:#DD9554;}
	.st30{fill:#CC8244;}
	.st31{fill:#805333;}
	.st32{fill:#A56A43;}
	.st33{fill:#CB8252;}
	.st34{fill:#ECF0F1;}
	.st35{fill:#603E26;}
	.st36{fill:#F9EAB0;}
	.st37{fill:#F5EFCA;}
	.st38{fill:#464F5D;}
	.st39{fill:#F3D55B;}
	.st40{fill:#6F6571;}
	.st41{fill:#4B3F4E;}
	.st42{fill:#5D5360;}
	.st43{fill:#857E87;}
	.st44{fill:#ECEAEC;}
	.st45{fill:#DAD8DB;}
	.st46{fill:#B3E59F;}
	.st47{fill:#CCF49F;}
	.st48{fill:#792A47;}
	.st49{fill:#A62B38;}
	.st50{fill:#D22D28;}
	.st51{fill:#FF2F19;}
	.st52{fill:#FFFFFF;}
	.st53{fill:#202666;}
	.st54{fill:#FDE6BB;}
	.st55{fill:#FE501F;}
	.st56{fill:#FD7226;}
	.st57{fill:#FCCD76;}
	.st58{fill:#FB932C;}
	.st59{fill:#4D2857;}
	.st60{fill:#B19046;}
	.st61{fill:#F0C419;}
	.st62{fill:#24AE5F;}
	.st63{fill:#E64C3C;}
	.st64{fill:#3B97D3;}
	.st65{fill:#E74444;}
	.st66{fill:#CE3536;}
	.st67{fill:#D9DBDD;}
	.st68{fill:#E8EDF1;}
	.st69{fill:#F3DB70;}
	.st70{fill:#D5DAF3;}
	.st71{fill:#A2AEE6;}
	.st72{fill:#FFC344;}
	.st73{fill:#FFE177;}
	.st74{fill:#BEC6ED;}
	.st75{fill:#8795DE;}
	.st76{fill-rule:evenodd;clip-rule:evenodd;fill:#A46A5A;}
	.st77{fill-rule:evenodd;clip-rule:evenodd;fill:#845252;}
	.st78{fill-rule:evenodd;clip-rule:evenodd;fill:#FFD05B;}
	.st79{fill-rule:evenodd;clip-rule:evenodd;fill:#704242;}
	.st80{fill-rule:evenodd;clip-rule:evenodd;fill:#FFC244;}
	.st81{fill-rule:evenodd;clip-rule:evenodd;fill:#596C76;}
	.st82{fill-rule:evenodd;clip-rule:evenodd;fill:#465A61;}
	.st83{fill:#A46A5A;}
	.st84{fill:#607D8B;}
	.st85{fill:#9C27B0;}
	.st86{fill:#03A9F4;}
	.st87{fill:#8BC34A;}
	.st88{fill:#FFC107;}
	.st89{fill:#FF9800;}
	.st90{fill:#F44336;}
	.st91{fill:#D7CCC8;}
	.st92{fill:#F57C00;}
	.st93{fill:#F9BB4B;}
	.st94{fill:#FCF05A;}
	.st95{fill:#66342E;}
	.st96{fill:#D3843D;}
	.st97{fill:#704C55;}
	.st98{fill:#5A344B;}
	.st99{fill:#E63950;}
	.st100{fill:#EFE2DD;}
	.st101{fill:#FF435B;}
	.st102{fill:#FFF5F5;}
	.st103{fill:#9B786F;}
	.st104{fill:#925CB4;}
	.st105{fill:#814BA2;}
	.st106{fill:#6F3F8A;}
	.st107{fill:#FFD185;}
	.st108{fill:#FFBA48;}
	.st109{fill:#FF5A35;}
	.st110{fill:#FF7A3C;}
	.st111{fill:#FFE8C2;}
	.st112{fill:#4F4F4F;}
	.st113{fill:#FF3A2F;}
	.st114{fill:#353535;}
	.st115{fill:#FB4A59;}
	.st116{fill:#F82F40;}
	.st117{fill:#3F5959;}
	.st118{fill:#384848;}
	.st119{fill:#EFF5F6;}
	.st120{fill:#CBE5E7;}
	.st121{fill:#FCC16D;}
	.st122{fill:#FCB44D;}
	.st123{fill:#A66856;}
	.st124{fill:#735458;}
	.st125{fill:#FFDEA9;}
	.st126{fill:#5C4346;}
	.st127{fill:#8F5040;}
	.st128{fill:#595959;}
	.st129{fill:#7F221C;}
	.st130{fill:#913122;}
	.st131{fill:#FFEFB0;}
	.st132{fill:#DB2116;}
	.st133{fill:#883F2E;}
	.st134{fill:#A44F3E;}
	.st135{fill:#D8AA5E;}
	.st136{fill:#E9B665;}
	.st137{fill:#E19974;}
	.st138{fill:#FFEFD2;}
	.st139{fill:#D7D0D6;}
	.st140{fill:#E8AD8C;}
	.st141{fill:#6D3326;}
	.st142{fill:#BA5D4F;}
	.st143{fill:#F5A871;}
	.st144{fill:#E89A5E;}
	.st145{fill:#A34F41;}
	.st146{fill:#D68A5A;}
	.st147{fill:#FFE5C4;}
	.st148{fill:#FDD1A7;}
	.st149{fill:#873F30;}
	.st150{fill:#C86F5C;}
	.st151{fill:#6C3328;}
	.st152{fill:#54231D;}
	.st153{fill:#B5B1B3;}
	.st154{fill:#FEC93E;}
	.st155{fill:#EFB533;}
	.st156{fill:#F7A738;}
	.st157{fill:#EA952F;}
	.st158{fill:#FD6E2E;}
	.st159{fill:#EA551B;}
	.st160{fill:#F5A257;}
	.st161{fill:#DB8F52;}
	.st162{fill:#75360D;}
	.st163{fill:#FFBF7B;}
	.st164{fill:#00CCB2;}
	.st165{fill:#00AB94;}
	.st166{fill:#FEA832;}
	.st167{fill:#FF8700;}
	.st168{fill:#00EED0;}
	.st169{fill:#FFD400;}
	.st170{fill:#FDBF00;}
	.st171{fill:#08B865;}
	.st172{fill:#E41F2D;}
	.st173{fill:#FD4755;}
	.st174{fill:#FB2B3A;}
	.st175{fill:#FED2A4;}
	.st176{fill:#FFE5C2;}
	.st177{fill:#FFBD86;}
	.st178{fill:#FE99A0;}
	.st179{fill:#FD8087;}
	.st180{fill:#C57A44;}
	.st181{fill:#09A755;}
	.st182{fill:#FEDF30;}
	.st183{fill:#FED402;}
	.st184{fill:#FAC600;}
	.st185{fill:#46CC8D;}
	.st186{fill:#00C27A;}
	.st187{fill:#FE7701;}
	.st188{fill:#FE860A;}
	.st189{fill:#C41926;}
	.st190{fill:#E89C5D;}
	.st191{fill:#F4B37D;}
	.st192{fill:#E8626C;}
	.st193{fill:#40C6C2;}
	.st194{fill:#FFC999;}
	.st195{fill:#4A4A68;}
	.st196{fill:#333356;}
	.st197{fill:#EDEDED;}
	.st198{fill:#C9C9C9;}
	.st199{fill:#FF9900;}
	.st200{fill:#FFCE00;}
	.st201{fill:#FBBD00;}
	.st202{fill:#ED8100;}
	.st203{fill:#FFE431;}
	.st204{fill:#FF9F00;}
	.st205{fill:#FFE666;}
	.st206{fill:#FFBF00;}
	.st207{fill:#FCCD31;}
	.st208{fill:#F2B016;}
	.st209{fill:#4A4D4F;}
	.st210{fill:#D3CBC2;}
	.st211{fill:#6D7072;}
	.st212{fill:#BAAFA6;}
	.st213{fill:#888C8E;}
	.st214{fill:#B4B4B4;}
	.st215{fill:#FFE999;}
	.st216{fill:#FFCF3B;}
	.st217{fill:#C1C1C1;}
	.st218{fill:#FFBC19;}
	.st219{fill:#94E6FF;}
	.st220{fill:#315F83;}
	.st221{fill:#267EA8;}
	.st222{fill:#3B3F5F;}
	.st223{fill:#D8F2FB;}
	.st224{fill:#35495E;}
	.st225{fill:#556080;}
	.st226{fill:#E4C05C;}
	.st227{fill:#E4C05C;stroke:#E4C05C;stroke-width:2;stroke-linecap:round;stroke-linejoin:round;stroke-miterlimit:10;}
	.st228{fill:#B57F5F;}
	.st229{fill:#966A5B;}
	.st230{fill:#FFD15B;}
	.st231{fill:#A5C3DC;}
	.st232{fill:#8697CB;}
	.st233{fill:#E0E0E0;}
	.st234{fill:#CCCCCC;}
	.st235{fill:#8E8E8E;}
	.st236{fill:#A0A0A0;}
	.st237{fill:#E13732;}
	.st238{fill:#F05055;}
	.st239{fill:#D24605;}
	.st240{fill:#FFCE53;}
	.st241{fill:#FFB833;}
	.st242{fill:#4999D1;}
	.st243{fill:#43AAF0;}
	.st244{fill:#FF2E23;}
	.st245{fill:#FF4A26;}
	.st246{fill:#C6805D;}
	.st247{fill:#77CC7D;}
	.st248{fill:#52BD7E;}
	.st249{fill:#98DB7C;}
	.st250{fill:#D48C64;}
	.st251{fill:#FFD18D;}
	.st252{fill:#FBBD80;}
	.st253{fill:#F3B573;}
	.st254{fill:#434A54;}
	.st255{fill:#DA4453;}
	.st256{fill:#FFCE54;}
	.st257{fill:#ED5564;}
	.st258{fill-rule:evenodd;clip-rule:evenodd;fill:#4BC3EF;}
	.st259{fill-rule:evenodd;clip-rule:evenodd;fill:#1BADDE;}
	.st260{fill-rule:evenodd;clip-rule:evenodd;fill:#DBD8DB;}
	.st261{fill-rule:evenodd;clip-rule:evenodd;fill:#C9BFC8;}
	.st262{fill:#421815;}
	.st263{fill:#FCB982;}
	.st264{fill:#FDDBBF;}
	.st265{fill:#FCCA9F;}
	.st266{fill:#C6865C;}
	.st267{fill:#B16E3D;}
	.st268{fill:#454545;}
	.st269{fill:#EFECEF;}
	.st270{fill:#E2DFE2;}
	.st271{fill:#3F3736;}
	.st272{fill:#C4755B;}
	.st273{fill:#FFE3A1;}
	.st274{fill-rule:evenodd;clip-rule:evenodd;fill:#D48C64;}
	.st275{fill:#DBD8DB;}
	.st276{fill:#BB5D4C;}
	.st277{fill:#465A61;}
	.st278{fill:#596C76;}
	.st279{fill:#E5E1E5;}
	.st280{fill:#7A8C98;}
	.st281{fill:#FEDBA6;}
	.st282{fill:#EAB14D;}
	.st283{fill:#617881;}
	.st284{fill:#E28086;}
	.st285{fill:#DD636E;}
	.st286{fill:#FFE07D;}
	.st287{fill:#ECBE6B;}
	.st288{fill:#E9EDF5;}
	.st289{fill:#CDD2E1;}
	.st290{fill:#FFAA00;}
	.st291{fill:#FF9500;}
	.st292{fill:#555A65;}
	.st293{fill:#333940;}
	.st294{fill:#E6A373;}
	.st295{fill:#CC8552;}
	.st296{fill:#FFDF40;}
	.st297{fill:#FFBE40;}
	.st298{fill:#FF9F40;}
	.st299{fill:#F77E00;}
	.st300{fill:#FFF04A;}
	.st301{fill:#00DDC1;}
	.st302{fill:#A24603;}
	.st303{fill:#F2D813;}
	.st304{fill:#803602;}
	.st305{fill:#3A3A3A;}
	.st306{fill:#AFAFAF;}
	.st307{fill:#686868;}
	.st308{fill:#925A15;}
	.st309{fill:#F3F2F6;}
	.st310{fill:#BF7D5A;}
	.st311{fill:#AA6256;}
	.st312{fill:#894E46;}
	.st313{fill:#DBA660;}
	.st314{fill:#E49542;}
	.st315{fill:#F9EFDA;}
	.st316{fill:#756E78;}
	.st317{fill:#665E66;}
	.st318{fill:#F9F6F9;}
	.st319{fill:#BC6C59;}
	.st320{fill:#994B39;}
	.st321{fill:#FEEC96;}
	.st322{fill:#F5DB64;}
	.st323{fill:#5D5E69;}
	.st324{fill:#FFE09F;}
	.st325{fill:#ECBD83;}
	.st326{fill:#F6D190;}
	.st327{fill:#FF8086;}
	.st328{fill:#E5646E;}
	.st329{fill:#357DA3;}
	.st330{fill:#F48A3B;}
	.st331{fill:#FFC233;}
	.st332{fill:#CDDEE0;}
	.st333{fill:#C8C5C9;}
	.st334{fill:#785353;}
	.st335{fill:#6E4848;}
	.st336{fill:#B7E4F8;}
	.st337{fill:#93D6F4;}
	.st338{fill:#DBF1FB;}
	.st339{fill:#8DCAFC;}
	.st340{fill:#64B9FC;}
	.st341{fill:#C4E1FF;}
	.st342{fill:#B5DBFD;}
	.st343{fill:#FEE7C9;}
	.st344{fill:#FFD496;}
	.st345{fill:#A3E440;}
	.st346{fill:#99D53B;}
	.st347{fill:#BCEA73;}
	.st348{fill:#C76D3D;}
	.st349{fill:#AA5E33;}
	.st350{fill:#D67F4F;}
	.st351{fill:#8DC637;}
	.st352{fill:#A79BA7;}
	.st353{fill:#7A6D79;}
	.st354{fill:#C4E2FF;}
	.st355{fill:#60B7FF;}
	.st356{fill:#B3DAFE;}
	.st357{fill:#F3F0F3;}
	.st358{fill:#EFEDEF;}
	.st359{fill:#CBC4CC;}
	.st360{fill:#26A6FE;}
	.st361{fill:#D2555A;}
	.st362{fill:#FF6464;}
	.st363{fill:#D7DEED;}
	.st364{fill:#B8BFD4;}
	.st365{fill:#959CB3;}
	.st366{fill:#F8C460;}
	.st367{fill:#FAAF42;}
	.st368{fill:#7A838B;}
	.st369{fill:#5D6972;}
	.st370{fill:#A7D0E1;}
	.st371{fill:#80BBCE;}
	.st372{fill:#FFD8CA;}
	.st373{fill:#FFBFAE;}
	.st374{fill:#FFE5D8;}
	.st375{fill:#E5EEF9;}
	.st376{fill:#56595E;}
	.st377{fill:#7F8284;}
	.st378{fill:#A5A5A4;}
	.st379{fill:#95A5A5;}
	.st380{fill:#BDC3C7;}
	.st381{fill:#7F8C8D;}
</style>
<g id="Acoustic_Grand_Keyboard">
	<g>
		<path class="st207" d="M17,8h-3v1.28c0,2.61,2.11,4.72,4.72,4.72H34v-3H18.89c-0.87,0.02-1.57-0.69-1.89-1.56V8z"/>
		<path class="st207" d="M23,21h12v-3l-11.77,0c-2.37,0-4.51,1.73-4.72,4.1C18.29,24.76,20.38,27,23,27h12v-3H23
			c-0.83,0-1.5-0.67-1.5-1.5S22.17,21,23,21z"/>
		<path class="st207" d="M17,36h-3v-1.28c0-2.61,2.11-4.72,4.72-4.72H34v3H18.89c-0.87,0.05-1.57,0.75-1.89,1.62V36z"/>
		<path class="st208" d="M17.56,13.92c0.29,0.05,0.58,0.08,0.87,0.08H20v-3.15C20,12.32,18.99,13.59,17.56,13.92z"/>
		<path class="st208" d="M22,20.46v-3.15c-0.81,0-1.61,0.21-2.31,0.61c0.98,2.66,0.98,5.58,0,8.23c0.71,0.4,1.5,0.61,2.31,0.61
			v-3.15c-0.87,0-1.57-0.7-1.57-1.57C20.43,21.16,21.13,20.46,22,20.46z"/>
		<path class="st208" d="M20.4,30c0,1.66-1.43,3-3.2,3c-0.91,0-1.78-0.37-2.39-1C14.28,32.74,14,33.61,14,34.5V35h3v-0.38
			c0.31-0.87,1.89-1.62,1.89-1.62H22v-3H20.4z"/>
		<path class="st207" d="M28,4.53v-2.5c-4.42,0-8,3.58-8,8v24c0,4.42,3.58,8,8,8v-2.5c-2.76,0-5-2.24-5-5v-25
			C23,6.77,25.24,4.53,28,4.53z"/>
		<path class="st208" d="M26.55,38.33c-2.53-0.52-4.8-1.92-6.4-3.95c0.29,4.12,3.71,7.32,7.85,7.32v-3.15
			C27.51,38.56,27.02,38.48,26.55,38.33L26.55,38.33z"/>
		<path class="st209" d="M35,17h4v2h-4V17z"/>
		<path class="st209" d="M35,25h4v2h-4V25z"/>
		<g>
			<path class="st208" d="M33,23.85c0,1.74-1.41,3.15-3.15,3.15H33V23.85z"/>
			<path class="st208" d="M33,29.85c0,1.74-1.41,3.15-3.15,3.15H33V29.85z"/>
			<path class="st208" d="M33,16.85c0,1.74-1.41,3.15-3.15,3.15H33V16.85z"/>
			<path class="st208" d="M33,10.85c0,1.74-1.41,3.15-3.15,3.15H33V10.85z"/>
		</g>
		<path class="st207" d="M28,4.53v-2.5c4.42,0,8,3.58,8,8v24c0,4.42-3.58,8-8,8v-2.5c2.76,0,5-2.24,5-5v-25
			C33,6.77,30.76,4.53,28,4.53z"/>
		<path class="st208" d="M31.06,37.48c-0.86,0.71-1.94,1.1-3.06,1.1v3.2c4.42,0,8-3.58,8-8v-1.59
			C35.04,34.49,33.28,36.37,31.06,37.48L31.06,37.48z"/>
		<path class="st207" d="M45,6h3v16h-3V6z"/>
		<path class="st208" d="M45,9.41V22h3V10.98C46.82,10.98,45.71,10.4,45,9.41z"/>
		<path class="st207" d="M28.33,2.36c-10.86,0-19.67,8.81-19.67,19.67S17.46,41.7,28.33,41.7S48,32.9,48,22.03
			S39.19,2.36,28.33,2.36z M28.33,38.56c-9.13,0-16.52-7.4-16.52-16.52S19.2,5.51,28.33,5.51s16.52,7.4,16.52,16.52
			S37.45,38.56,28.33,38.56z"/>
		<path class="st208" d="M28,38.56c-2.62,0-5.2-0.62-7.53-1.81c-3.98-0.69-7.57-2.81-10.09-5.96C13.7,37.48,20.53,41.71,28,41.7
			V38.56z"/>
		<path class="st208" d="M28,41.7c10.86,0,19.67-8.81,19.67-19.67c0-0.13,0-0.27-0.01-0.4c-0.21,10.25-8.94,18.5-19.67,18.5V41.7z"
			/>
		<path class="st210" d="M40,14h6c0.83,0,1.5,0.67,1.5,1.5S46.83,17,46,17h-6V14z"/>
		<path class="st210" d="M40,21h6c0.83,0,1.5,0.67,1.5,1.5S46.83,24,46,24h-6V21z"/>
		<path class="st210" d="M40,27h6c0.83,0,1.5,0.67,1.5,1.5S46.83,30,46,30h-6V27z"/>
		<path class="st211" d="M39,13h3v19h-3V13z"/>
		<path class="st207" d="M2,29.41V48.3C7.1,44.22,13.44,42,19.97,42H28v-3.15l-12.21-1.88C10.45,36.16,5.56,33.48,2,29.41z"/>
		<path class="st208" d="M21.39,40C14.48,40.13,7.76,43.14,2,47.21V48c5.45-4.08,11.78-6.3,18.31-6H28v-2H21.39z"/>
		<path class="st208" d="M14.37,13.19c4.89-7.71,15.1-10,22.81-5.11c2.06,1.31,3.81,3.05,5.11,5.11C38.27,5.48,28.76,2.49,21.05,6.5
			C18.19,7.99,15.86,10.33,14.37,13.19L14.37,13.19z"/>
		<path class="st212" d="M42,13.85c0,1.74,1.41,3.15,3.15,3.15H42V13.85z"/>
		<path class="st212" d="M42,20.85c0,1.74,1.41,3.15,3.15,3.15H42V20.85z"/>
		<path class="st212" d="M42,26.85c0,1.74,1.41,3.15,3.15,3.15H42V26.85z"/>
		<path class="st208" d="M24,10.85c0,1.74,1.41,3.15,3.15,3.15H24V10.85z"/>
		<path class="st208" d="M24,16.85c0,1.74,1.41,3.15,3.15,3.15H24V16.85z"/>
		<path class="st208" d="M24,23.85c0,1.74,1.41,3.15,3.15,3.15H24V23.85z"/>
		<path class="st208" d="M24,29.85c0,1.74,1.41,3.15,3.15,3.15H24V29.85z"/>
		<circle class="st213" cx="34.62" cy="14.95" r="2.36"/>
		<path class="st211" d="M35.85,12.94c0.68,1.11,0.33,2.57-0.79,3.24c-0.75,0.46-1.7,0.46-2.46,0c0.68,1.11,2.13,1.46,3.24,0.79
			c1.11-0.68,1.46-2.13,0.79-3.24C36.44,13.4,36.17,13.13,35.85,12.94L35.85,12.94z"/>
		<circle class="st213" cx="34.62" cy="22.03" r="2.36"/>
		<path class="st211" d="M35.85,20.02c0.68,1.11,0.33,2.57-0.79,3.24c-0.75,0.46-1.7,0.46-2.46,0c0.68,1.11,2.13,1.46,3.24,0.79
			c1.11-0.68,1.46-2.13,0.79-3.24C36.44,20.48,36.17,20.21,35.85,20.02L35.85,20.02z"/>
		<circle class="st213" cx="34.62" cy="29.11" r="2.36"/>
		<path class="st211" d="M35.85,27.1c0.68,1.11,0.33,2.57-0.79,3.24c-0.75,0.46-1.7,0.46-2.46,0c0.68,1.11,2.13,1.46,3.24,0.79
			c1.11-0.68,1.46-2.13,0.79-3.24C36.44,27.56,36.17,27.29,35.85,27.1z"/>
		<path class="st210" d="M45,2h3v5h-3V2z"/>
		<path class="st212" d="M44.85,2C46.59,2,48,3.41,48,5.15V2H44.85z"/>
	</g>
</g>
<g id="Layer_2">
</g>
</svg>

<svg id="Acoustic_Grand_Keyboard" data-name="Acoustic Grand Keyboard" xmlns="http://www.w3.org/2000/svg" viewBox="0 0 48 48"><defs><style>.cls-1{fill:#fccd31;}.cls-2{fill:#f2b016;}.cls-3{fill:#4a4d4f;}.cls-4{fill:#d3cbc2;}.cls-5{fill:#6d7072;}.cls-6{fill:#baafa6;}.cls-7{fill:#888c8e;}</style></defs><path class="cls-1" d="M17,8H14V9.28A4.72,4.72,0,0,0,18.72,14H34V11H18.89A2.11,2.11,0,0,1,17,9.44Z"/><path class="cls-1" d="M23,21H35V18H23.23a4.65,4.65,0,0,0-4.71,4.1A4.5,4.5,0,0,0,23,27H35V24H23a1.5,1.5,0,0,1,0-3Z"/><path class="cls-1" d="M17,36H14V34.72A4.72,4.72,0,0,1,18.72,30H34v3H18.89A2.28,2.28,0,0,0,17,34.62Z"/><path class="cls-2" d="M17.56,13.92a5.12,5.12,0,0,0,.87.08H20V10.85A3.15,3.15,0,0,1,17.56,13.92Z"/><path class="cls-2" d="M22,20.46V17.31a4.66,4.66,0,0,0-2.31.61,11.89,11.89,0,0,1,0,8.23,4.66,4.66,0,0,0,2.31.6V23.61a1.58,1.58,0,0,1,0-3.15Z"/><path class="cls-2" d="M20.4,30a3.1,3.1,0,0,1-3.2,3,3.34,3.34,0,0,1-2.39-1A4.29,4.29,0,0,0,14,34.5V35h3v-.38c.31-.87,1.89-1.62,1.89-1.62H22V30Z"/><path class="cls-1" d="M28,4.53V2a8,8,0,0,0-8,8V34a8,8,0,0,0,8,8v-2.5a5,5,0,0,1-5-5v-25A5,5,0,0,1,28,4.53Z"/><path class="cls-2" d="M26.55,38.33a11,11,0,0,1-6.4-3.95A7.87,7.87,0,0,0,28,41.7V38.56a4.78,4.78,0,0,1-1.45-.23Z"/><path class="cls-3" d="M35,17h4v2H35Z"/><path class="cls-3" d="M35,25h4v2H35Z"/><path class="cls-2" d="M33,23.85A3.15,3.15,0,0,1,29.85,27H33Z"/><path class="cls-2" d="M33,29.85A3.15,3.15,0,0,1,29.85,33H33Z"/><path class="cls-2" d="M33,16.85A3.15,3.15,0,0,1,29.85,20H33Z"/><path class="cls-2" d="M33,10.85A3.15,3.15,0,0,1,29.85,14H33Z"/><path class="cls-1" d="M28,4.53V2a8,8,0,0,1,8,8V34a8,8,0,0,1-8,8v-2.5a5,5,0,0,0,5-5v-25A5,5,0,0,0,28,4.53Z"/><path class="cls-2" d="M31.06,37.48A4.69,4.69,0,0,1,28,38.58v3.2a8,8,0,0,0,8-8V32.19a10.4,10.4,0,0,1-4.94,5.29Z"/><path class="cls-1" d="M45,6h3V22H45Z"/><path class="cls-2" d="M45,9.41V22h3V11A3.69,3.69,0,0,1,45,9.41Z"/><path class="cls-1" d="M28.33,2.36A19.67,19.67,0,1,0,48,22,19.67,19.67,0,0,0,28.33,2.36Zm0,36.2A16.53,16.53,0,1,1,44.85,22,16.53,16.53,0,0,1,28.33,38.56Z"/><path class="cls-2" d="M28,38.56a16.44,16.44,0,0,1-7.53-1.82,16.48,16.48,0,0,1-10.09-6A19.64,19.64,0,0,0,28,41.7Z"/><path class="cls-2" d="M28,41.7A19.67,19.67,0,0,0,47.67,22v-.4c-.22,10.25-8.94,18.5-19.67,18.5Z"/><path class="cls-4" d="M40,14h6a1.5,1.5,0,0,1,0,3H40Z"/><path class="cls-4" d="M40,21h6a1.5,1.5,0,0,1,0,3H40Z"/><path class="cls-4" d="M40,27h6a1.5,1.5,0,0,1,0,3H40Z"/><path class="cls-5" d="M39,13h3V32H39Z"/><path class="cls-1" d="M2,29.41V48.3A28.77,28.77,0,0,1,20,42h8V38.85L15.79,37A23,23,0,0,1,2,29.41Z"/><path class="cls-2" d="M21.39,40C14.48,40.13,7.76,43.14,2,47.21V48a28.4,28.4,0,0,1,18.31-6H28V40Z"/><path class="cls-2" d="M14.37,13.19a16.53,16.53,0,0,1,27.92,0,15.73,15.73,0,0,0-27.92,0Z"/><path class="cls-6" d="M42,13.85A3.15,3.15,0,0,0,45.15,17H42Z"/><path class="cls-6" d="M42,20.85A3.15,3.15,0,0,0,45.15,24H42Z"/><path class="cls-6" d="M42,26.85A3.15,3.15,0,0,0,45.15,30H42Z"/><path class="cls-2" d="M24,10.85A3.15,3.15,0,0,0,27.15,14H24Z"/><path class="cls-2" d="M24,16.85A3.15,3.15,0,0,0,27.15,20H24Z"/><path class="cls-2" d="M24,23.85A3.15,3.15,0,0,0,27.15,27H24Z"/><path class="cls-2" d="M24,29.85A3.15,3.15,0,0,0,27.15,33H24Z"/><circle class="cls-7" cx="34.62" cy="14.95" r="2.36"/><path class="cls-5" d="M35.85,12.94a2.36,2.36,0,0,1-3.24,3.24,2.36,2.36,0,1,0,3.24-3.24Z"/><circle class="cls-7" cx="34.62" cy="22.03" r="2.36"/><path class="cls-5" d="M35.85,20a2.36,2.36,0,0,1-3.24,3.24A2.36,2.36,0,1,0,35.85,20Z"/><circle class="cls-7" cx="34.62" cy="29.11" r="2.36"/><path class="cls-5" d="M35.85,27.1a2.36,2.36,0,0,1-3.24,3.24,2.36,2.36,0,1,0,3.24-3.24Z"/><path class="cls-4" d="M45,2h3V7H45Z"/><path class="cls-6" d="M44.85,2A3.15,3.15,0,0,1,48,5.15V2Z"/></svg>
